icons/assets/dark/fingerprint.svg

<svg width="48" height="48" viewBox="0 0 48 48" fill="none" xmlns="http://www.w3.org/2000/svg">
<path d="M8 29.8545C11.0938 26.9839 8 19.1704 12.2788 13.3603M17.8769 8.94846C26.0502 4.98142 29.8978 6.74889 34.6543 10.8894C40.2154 15.7303 41.2626 26.9917 38.6068 37.0012M13.3507 37.4019C13.3507 37.4019 15.9514 33.3857 17.0353 30.3898C18.8371 25.4095 17.0353 21.6413 19.1527 18.3879C20.0474 17.0132 22.1038 15.2078 24.6802 15.2078C28.491 15.2078 30.9052 16.8998 32.3095 21.6413M32.3095 28.4427C32.3095 35.0843 31.3046 37.4019 28.491 41.2753M25.2816 24.0177C25.2816 33.6149 23.9355 35.3316 19.9159 41.2753" stroke="#62646A" stroke-width="3.5" stroke-linecap="round" stroke-linejoin="round"/>
</svg>

<svg width="48" height="48" fill="none" xmlns="http://www.w3.org/2000/svg"><path d="M8 29.855c3.094-2.871 0-10.685 4.279-16.495m5.598-4.412c8.173-3.967 12.02-2.2 16.777 1.941 5.561 4.841 6.609 16.103 3.953 26.112m-25.256.4s2.6-4.015 3.684-7.011c1.802-4.98 0-8.749 2.118-12.002.894-1.375 2.95-3.18 5.527-3.18 3.811 0 6.225 1.692 7.63 6.433m0 6.802c0 6.641-1.005 8.959-3.819 12.832m-3.21-17.257c0 9.597-1.345 11.314-5.365 17.257" stroke="#62646A" stroke-width="3.5" stroke-linecap="round" stroke-linejoin="round"/></svg>
